imgs/facebook.svg

<svg width="189" height="189" viewBox="0 0 189 189" fill="none" xmlns="http://www.w3.org/2000/svg">
<path d="M0.136914 86.4285C3.4386 47.2592 32.6856 12.9553 70.5121 3.14085C138.596 -14.5164 200.944 44.9818 187.042 113.802C180.187 147.726 153.936 175.868 120.762 185.318V115.581H141.05L144.002 91.9642H120.762V72.9613C120.762 71.9261 122.329 68.786 123.162 67.9825C124.083 67.1002 127.503 65.3946 128.691 65.3946H144.736V43.991C132.195 43.4586 118.189 40.8855 107.358 48.8514C98.404 55.4371 96.4723 65.3798 96.0287 75.8943C95.8021 81.2279 96.2259 86.6256 96.0435 91.9593H75.7554V115.019C75.7554 115.059 76.2679 115.571 76.3073 115.571H96.0435V189H86.8234L70.5121 185.944C37.9733 177.431 11.6632 151.181 3.19218 118.603L0.136914 102.286C0.452299 97.1401 -0.291813 91.5008 0.136914 86.4186V86.4285Z" fill="#6FE9B8"/>
</svg>

<?xml version="1.0" encoding="UTF-8"?>
<svg id="_圖層_1" data-name="圖層_1" xmlns="http://www.w3.org/2000/svg" version="1.1" viewBox="0 0 189 189">
  <!-- Generator: Adobe Illustrator 29.5.1, SVG Export Plug-In . SVG Version: 2.1.0 Build 141)  -->
  <defs>
    <style>
      .st0 {
        fill: #299ea7;
      }
    </style>
  </defs>
  <path class="st0" d="M.14,86.43C3.44,47.26,32.69,12.96,70.51,3.14c68.08-17.66,130.43,41.84,116.53,110.66-6.86,33.92-33.11,62.07-66.28,71.52v-69.74h20.29l2.95-23.62h-23.24v-19c0-1.04,1.57-4.18,2.4-4.98.92-.88,4.34-2.59,5.53-2.59h16.04v-21.4c-12.54-.53-26.55-3.11-37.38,4.86-8.95,6.59-10.89,16.53-11.33,27.04-.23,5.33.2,10.73.01,16.06h-20.29v23.06s.51.55.55.55h19.74v73.43h-9.22l-16.31-3.06C37.97,177.43,11.66,151.18,3.19,118.6L.14,102.29c.32-5.15-.43-10.79,0-15.87H.14Z"/>
</svg>
